!!!COM: Falla (y Matheu), Manuel de
!!!OTL: El sombrero de tres picos (The Three Cornered Hat), Ballet in Two Parts
!!!OMV: Act II, No. 2: Danse Finale: Jota (Final Dance: Jota)
!!!example: 309
!!!work: Fal-6
**kern	**dynam	**kern	**dynam	**kern	**dynam	**kern	**dynam	**kern	**dynam	**kern	**kern	**dynam	**kern	**kern	**dynam	**kern	**kern	**dynam	**kern	**dynam	**kern	**dynam	**kern	**dynam	**kern	**dynam	**kern	**dynam	**kern	**dynam	**kern	**dynam	**kern	**dynam	**kern	**dynam	**kern	**dynam	**kern	**dynam	**kern	**dynam	**kern	**dynam	**kern	**dynam
*part23	*part23	*part22	*part22	*part21	*part21	*part20	*part20	*part19	*part19	*part18	*part18	*part18	*part17	*part17	*part17	*part16	*part15	*part15	*part14	*part14	*part13	*part13	*part12	*part12	*part11	*part11	*part10	*part10	*part9	*part9	*part8	*part8	*part7	*part7	*part6	*part6	*part5	*part5	*part4	*part4	*part3	*part3	*part2	*part2	*part1	*part1
*staff25	*	*staff24	*	*staff23	*	*staff22	*	*staff21	*	*staff20	*staff19	*	*staff18	*staff17	*	*staff16	*staff15	*	*staff14	*	*staff13	*	*staff12	*	*staff11	*	*staff10	*	*staff9	*	*staff8	*	*staff7	*	*staff6	*	*staff5	*	*staff4	*	*staff3	*	*staff2	*	*staff1	*
*I"Contrabass	*	*I"Violoncello	*	*I"Viola	*	*I"Violin II	*	*I"Violin I	*	*I"Harp	*	*	*I"Piano	*	*	*I"Snare Drum	*I"Cymbals	*	*I"Tambourine	*	*I"Timpani	*	*I"Tuba	*	*I"Trombone	*	*I"Trumpet in C	*	*I"Trumpet in C	*	*I"Horn in F	*	*I"Horn in F	*	*I"Bassoon	*	*I"Clarinet in A	*	*I"Cor Anglais	*	*I"Oboe	*	*I"Piccolo	*	*I"Flute	*
*I'Cb.	*	*I'Vc.	*	*I'Vla.	*	*I'Vln. II	*	*I'Vln. I	*	*I'Hp.	*	*	*I'Pno.	*	*	*I'S. D.	*I'Cym.	*	*I'Tamb.	*	*I'Timp.	*	*I'Tba.	*	*I'Tbn.	*	*I'C Tpt.	*	*I'C Tpt.	*	*I'Hn.	*	*I'Hn.	*	*I'Bsn.	*	*I'Cl.	*	*I'C. A.	*	*I'Ob.	*	*I'Picc.	*	*I'Fl.	*
*clefF4	*	*clefF4	*	*clefC3	*	*clefG2	*	*clefG2	*	*clefF4	*clefG2	*	*clefF4	*clefG2	*	*clefpercussion0	*clefpercussion0	*	*clefpercussion0	*	*clefF4	*	*clefF4	*	*clefC4	*	*clefG2	*	*clefG2	*	*clefG2	*	*clefG2	*	*clefF4	*	*clefG2	*	*clefG2	*	*clefG2	*	*clefG2	*	*clefG2	*
*k[]	*	*k[]	*	*k[]	*	*k[]	*	*k[]	*	*k[]	*k[]	*	*k[]	*k[]	*	*	*	*	*	*	*	*	*k[]	*	*k[]	*	*k[]	*	*k[]	*	*	*	*	*	*k[]	*	*k[]	*	*k[]	*	*k[]	*	*k[]	*	*k[]	*
*	*	*	*	*	*	*	*	*	*	*	*	*	*	*	*	*	*	*	*	*	*	*	*	*	*	*	*	*	*	*	*	*	*	*	*	*	*	*	*	*	*	*	*	*	*	*
*M3/4	*	*M3/4	*	*M3/4	*	*M3/4	*	*M3/4	*	*M3/4	*M3/4	*	*M3/4	*M3/4	*	*M3/4	*M3/4	*	*M3/4	*	*M3/4	*	*M3/4	*	*M3/4	*	*M3/4	*	*M3/4	*	*M3/4	*	*M3/4	*	*M3/4	*	*M3/4	*	*M3/4	*	*M3/4	*	*M3/4	*	*M3/4	*
=1	=	=	=	=	=	=	=	=	=	=	=	=	=	=	=	=	=	=	=	=	=	=	=	=	=	=	=	=	=	=	=	=	=	=	=	=	=	=	=	=	=	=	=	=	=	=
16BB^LL	>	16BB^LL	>	8f#X'^L	f	8a'^L	f	2.r	.	2.r	2.r	.	2.r	2.r	.	2.r	2.r	.	2.r	.	2.r	.	2.r	.	2.r	.	2.r	.	4r	.	8f#X^	f	8a^	f	16BB^LL	>	2.r	.	2.r	.	2.r	.	2.r	.	2.r	.
16AAJ	.	16AAJ	.	.	.	.	.	.	.	.	.	.	.	.	.	.	.	.	.	.	.	.	.	.	.	.	.	.	.	.	.	.	.	.	16AAJ	.	.	.	.	.	.	.	.	.	.	.
8BBJ	.	8BBJ	.	16d#XL	p	16f#XL	p	.	.	.	.	.	.	.	.	.	.	.	.	.	.	.	.	.	.	.	.	.	.	.	8r	.	8r	.	8BBJ	]	.	.	.	.	.	.	.	.	.	.
.	.	.	.	16eJJ	.	16g#XJJ	.	.	.	.	.	.	.	.	.	.	.	.	.	.	.	.	.	.	.	.	.	.	.	.	.	.	.	.	.	.	.	.	.	.	.	.	.	.	.	.
!	!	!	!	!	!	!	!	!	!	!	!	!	!	!	!	!	!	!	!	!	!	!	!	!	!	!	!	!	!LO:TX:t=con sord.	!	!	!	!	!	!	!	!	!	!	!	!	!	!	!	!	!
16BBLL	]	16BBLL	]	8f#L	.	8aL	.	.	.	.	.	.	.	.	.	.	.	.	.	.	.	.	.	.	.	.	.	.	2c 2cc	mf	4r	.	4r	.	4r	.	.	.	.	.	.	.	.	.	.	.
16AAJ	.	16AAJ	.	.	.	.	.	.	.	.	.	.	.	.	.	.	.	.	.	.	.	.	.	.	.	.	.	.	.	.	.	.	.	.	.	.	.	.	.	.	.	.	.	.	.	.
8BBJ	.	8BBJ	.	16d#L	.	16f#L	.	.	.	.	.	.	.	.	.	.	.	.	.	.	.	.	.	.	.	.	.	.	.	.	.	.	.	.	.	.	.	.	.	.	.	.	.	.	.	.
.	.	.	.	16eJJ	.	16g#JJ	.	.	.	.	.	.	.	.	.	.	.	.	.	.	.	.	.	.	.	.	.	.	.	.	.	.	.	.	.	.	.	.	.	.	.	.	.	.	.	.
16BBLL	.	16BBLL	.	16f#LL	.	16aLL	.	.	.	.	.	.	.	.	.	.	.	.	.	.	.	.	.	.	.	.	.	.	.	.	4r	.	4r	.	4r	.	.	.	.	.	.	.	.	.	.	.
16AAJ	.	16AAJ	.	16g#X	.	16b	.	.	.	.	.	.	.	.	.	.	.	.	.	.	.	.	.	.	.	.	.	.	.	.	.	.	.	.	.	.	.	.	.	.	.	.	.	.	.	.
8BBJ	.	8BBJ	.	16f#	.	16a	.	.	.	.	.	.	.	.	.	.	.	.	.	.	.	.	.	.	.	.	.	.	.	.	.	.	.	.	.	.	.	.	.	.	.	.	.	.	.	.
.	.	.	.	16eJJ	.	16g#JJ	.	.	.	.	.	.	.	.	.	.	.	.	.	.	.	.	.	.	.	.	.	.	.	.	.	.	.	.	.	.	.	.	.	.	.	.	.	.	.	.
=2	=2	=2	=2	=2	=2	=2	=2	=2	=2	=2	=2	=2	=2	=2	=2	=2	=2	=2	=2	=2	=2	=2	=2	=2	=2	=2	=2	=2	=2	=2	=2	=2	=2	=2	=2	=2	=2	=2	=2	=2	=2	=2	=2	=2	=2	=2
!LO:TX:t=cresc.	!	!LO:TX:t=cresc.	!	!LO:TX:t=cresc.	!	!LO:TX:t=cresc.	!	!	!	!	!	!	!	!	!	!	!	!	!	!	!	!	!	!	!	!	!	!	!	!	!	!	!	!	!	!	!	!	!	!	!	!	!	!	!	!
16BBLL	.	16BBLL	.	8f#XL	.	8aL	.	2.r	.	2.r	2.r	.	2.r	2.r	.	2.r	2.r	.	2.r	.	2.r	.	2.r	.	2.r	.	2.r	.	8r	.	2.r	.	2.r	.	2.r	.	2.r	.	2.r	.	2.r	.	2.r	.	2.r	.
16AAJ	.	16AAJ	.	.	.	.	.	.	.	.	.	.	.	.	.	.	.	.	.	.	.	.	.	.	.	.	.	.	.	.	.	.	.	.	.	.	.	.	.	.	.	.	.	.	.	.
!	!	!	!	!	!	!	!	!	!	!	!	!	!	!	!	!	!	!	!	!	!	!	!	!	!	!	!	!	!LO:TX:t=cresc.	!	!	!	!	!	!	!	!	!	!	!	!	!	!	!	!	!
8BBJ	.	8BBJ	.	16d#XL	.	16f#XL	.	.	.	.	.	.	.	.	.	.	.	.	.	.	.	.	.	.	.	.	.	.	8c' 8cc	.	.	.	.	.	.	.	.	.	.	.	.	.	.	.	.	.
.	.	.	.	16eJJ	.	16g#XJJ	.	.	.	.	.	.	.	.	.	.	.	.	.	.	.	.	.	.	.	.	.	.	.	.	.	.	.	.	.	.	.	.	.	.	.	.	.	.	.	.
16BBLL	.	16BBLL	.	16f#LL	.	16aLL	.	.	.	.	.	.	.	.	.	.	.	.	.	.	.	.	.	.	.	.	.	.	8c' 8cc	.	.	.	.	.	.	.	.	.	.	.	.	.	.	.	.	.
16AAJ	.	16AAJ	.	16g#X	.	16b	.	.	.	.	.	.	.	.	.	.	.	.	.	.	.	.	.	.	.	.	.	.	.	.	.	.	.	.	.	.	.	.	.	.	.	.	.	.	.	.
8BBJ	.	8BBJ	.	16f#	.	16a	.	.	.	.	.	.	.	.	.	.	.	.	.	.	.	.	.	.	.	.	.	.	4c^ 4cc	.	.	.	.	.	.	.	.	.	.	.	.	.	.	.	.	.
.	.	.	.	16eJJ	.	16g#JJ	.	.	.	.	.	.	.	.	.	.	.	.	.	.	.	.	.	.	.	.	.	.	.	.	.	.	.	.	.	.	.	.	.	.	.	.	.	.	.	.
16BBLL	.	16BBLL	.	8f#L	.	8aL	.	.	.	.	.	.	.	.	.	.	.	.	.	.	.	.	.	.	.	.	.	.	.	.	.	.	.	.	.	.	.	.	.	.	.	.	.	.	.	.
16AAJ	.	16AAJ	.	.	.	.	.	.	.	.	.	.	.	.	.	.	.	.	.	.	.	.	.	.	.	.	.	.	.	.	.	.	.	.	.	.	.	.	.	.	.	.	.	.	.	.
8BBJ	.	8BBJ	.	8d#J	.	8f#J	.	.	.	.	.	.	.	.	.	.	.	.	.	.	.	.	.	.	.	.	.	.	8d' 8dd	.	.	.	.	.	.	.	.	.	.	.	.	.	.	.	.	.
=3	=3	=3	=3	=3	=3	=3	=3	=3	=3	=3	=3	=3	=3	=3	=3	=3	=3	=3	=3	=3	=3	=3	=3	=3	=3	=3	=3	=3	=3	=3	=3	=3	=3	=3	=3	=3	=3	=3	=3	=3	=3	=3	=3	=3	=3	=3
16GG#X^LL	.	16GG#X^LL	.	8f#XL	.	8aL	.	2.r	.	2.r	2.r	.	2.r	2.r	.	2.r	2.r	.	2.r	.	2.r	.	2.r	.	2.r	.	2.r	.	8r	.	2.r	.	2.r	.	16GG#X^LL	>	2.r	.	2.r	.	2.r	.	2.r	.	2.r	.
16FF#XJ	.	16FF#XJ	.	.	.	.	.	.	.	.	.	.	.	.	.	.	.	.	.	.	.	.	.	.	.	.	.	.	.	.	.	.	.	.	16FF#XJ	.	.	.	.	.	.	.	.	.	.	.
8GG#J	.	8GG#J	.	16d#XL	.	16f#XL	.	.	.	.	.	.	.	.	.	.	.	.	.	.	.	.	.	.	.	.	.	.	8c' 8cc	<	.	.	.	.	8GG#J	]	.	.	.	.	.	.	.	.	.	.
.	.	.	.	16eJJ	.	16g#XJJ	.	.	.	.	.	.	.	.	.	.	.	.	.	.	.	.	.	.	.	.	.	.	.	.	.	.	.	.	.	.	.	.	.	.	.	.	.	.	.	.
16GG#LL	.	16GG#LL	.	8f#L	.	8aL	.	.	.	.	.	.	.	.	.	.	.	.	.	.	.	.	.	.	.	.	.	.	8c' 8cc	.	.	.	.	.	4r	.	.	.	.	.	.	.	.	.	.	.
16FF#J	.	16FF#J	.	.	.	.	.	.	.	.	.	.	.	.	.	.	.	.	.	.	.	.	.	.	.	.	.	.	.	.	.	.	.	.	.	.	.	.	.	.	.	.	.	.	.	.
8GG#J	.	8GG#J	.	16d#L	.	16f#L	.	.	.	.	.	.	.	.	.	.	.	.	.	.	.	.	.	.	.	.	.	.	4c^ 4cc	.	.	.	.	.	.	.	.	.	.	.	.	.	.	.	.	.
.	.	.	.	16eJJ	.	16g#JJ	.	.	.	.	.	.	.	.	.	.	.	.	.	.	.	.	.	.	.	.	.	.	.	.	.	.	.	.	.	.	.	.	.	.	.	.	.	.	.	.
16GG#LL	.	16GG#LL	.	8f#L	.	8aL	.	.	.	.	.	.	.	.	.	.	.	.	.	.	.	.	.	.	.	.	.	.	.	.	.	.	.	.	4r	.	.	.	.	.	.	.	.	.	.	.
16FF#J	.	16FF#J	.	.	.	.	.	.	.	.	.	.	.	.	.	.	.	.	.	.	.	.	.	.	.	.	.	.	.	.	.	.	.	.	.	.	.	.	.	.	.	.	.	.	.	.
8GG#J	.	8GG#J	.	16d#L	.	16f#L	.	.	.	.	.	.	.	.	.	.	.	.	.	.	.	.	.	.	.	.	.	.	8d' 8dd	[	.	.	.	.	.	.	.	.	.	.	.	.	.	.	.	.
.	.	.	.	16eJJ	.	16g#JJ	.	.	.	.	.	.	.	.	.	.	.	.	.	.	.	.	.	.	.	.	.	.	.	.	.	.	.	.	.	.	.	.	.	.	.	.	.	.	.	.
=4	=4	=4	=4	=4	=4	=4	=4	=4	=4	=4	=4	=4	=4	=4	=4	=4	=4	=4	=4	=4	=4	=4	=4	=4	=4	=4	=4	=4	=4	=4	=4	=4	=4	=4	=4	=4	=4	=4	=4	=4	=4	=4	=4	=4	=4	=4
16AA-X^LL	f	16AA-X^LL	f	8f#XL	f	8aL	f	2.r	.	2.r	2.r	.	2.r	2.r	.	2.r	2.r	.	2.r	.	2.r	.	2.r	.	2.r	.	2.r	.	2e-X^ 2ee-X	f	2.r	.	2.r	.	16AA-X^LL	>	2.r	.	2.r	.	2.r	.	2.r	.	2.r	.
16GG-XJ	.	16GG-XJ	.	.	.	.	.	.	.	.	.	.	.	.	.	.	.	.	.	.	.	.	.	.	.	.	.	.	.	.	.	.	.	.	16GG-XJ	.	.	.	.	.	.	.	.	.	.	.
8AA-J	.	8AA-J	.	16d#XL	.	16f#XL	.	.	.	.	.	.	.	.	.	.	.	.	.	.	.	.	.	.	.	.	.	.	.	.	.	.	.	.	8AA-J	]	.	.	.	.	.	.	.	.	.	.
.	.	.	.	16eJJ	.	16g#XJJ	.	.	.	.	.	.	.	.	.	.	.	.	.	.	.	.	.	.	.	.	.	.	.	.	.	.	.	.	.	.	.	.	.	.	.	.	.	.	.	.
16AA-LL	.	16AA-LL	.	16f#LL	.	16aLL	.	.	.	.	.	.	.	.	.	.	.	.	.	.	.	.	.	.	.	.	.	.	.	.	.	.	.	.	4r	.	.	.	.	.	.	.	.	.	.	.
16GG-J	.	16GG-J	.	16g#X	.	16b	.	.	.	.	.	.	.	.	.	.	.	.	.	.	.	.	.	.	.	.	.	.	.	.	.	.	.	.	.	.	.	.	.	.	.	.	.	.	.	.
8AA-J	.	8AA-J	.	16f#	.	16a	.	.	.	.	.	.	.	.	.	.	.	.	.	.	.	.	.	.	.	.	.	.	.	.	.	.	.	.	.	.	.	.	.	.	.	.	.	.	.	.
.	.	.	.	16eJJ	.	16g#JJ	.	.	.	.	.	.	.	.	.	.	.	.	.	.	.	.	.	.	.	.	.	.	.	.	.	.	.	.	.	.	.	.	.	.	.	.	.	.	.	.
16AA-LL	.	16AA-LL	.	8f#L	.	8aL	.	.	.	.	.	.	.	.	.	.	.	.	.	.	.	.	.	.	.	.	.	.	4r	.	.	.	.	.	4r	.	.	.	.	.	.	.	.	.	.	.
16GG-J	.	16GG-J	.	.	.	.	.	.	.	.	.	.	.	.	.	.	.	.	.	.	.	.	.	.	.	.	.	.	.	.	.	.	.	.	.	.	.	.	.	.	.	.	.	.	.	.
8AA-J	.	8AA-J	.	8d#J	.	8f#J	.	.	.	.	.	.	.	.	.	.	.	.	.	.	.	.	.	.	.	.	.	.	.	.	.	.	.	.	.	.	.	.	.	.	.	.	.	.	.	.
=5	=5	=5	=5	=5	=5	=5	=5	=5	=5	=5	=5	=5	=5	=5	=5	=5	=5	=5	=5	=5	=5	=5	=5	=5	=5	=5	=5	=5	=5	=5	=5	=5	=5	=5	=5	=5	=5	=5	=5	=5	=5	=5	=5	=5	=5	=5
!!pagebreak:original
8FFF	pp	8FFL	pp	(4cc^	pp	8d#XL	pp	(4ccc^	pp	2.r	2.r	.	2.r	2.r	.	2.r	2.r	.	2.r	.	8FFL	pp	[2.FF [2.F	.	[2.A [2.e-X	pp	8r	.	2.r	.	8r	.	8r	.	2.r	.	(16ff#XLL	p	2.r	.	2.r	.	2.r	.	2.r	.
.	.	.	.	.	.	.	.	.	.	.	.	.	.	.	.	.	.	.	.	.	.	.	.	.	.	.	.	.	.	.	.	.	.	.	.	.	16dd#X	.	.	.	.	.	.	.	.	.
[4FF^	.	8FJ	<	.	.	8AJ	.	.	.	.	.	.	.	.	.	.	.	.	.	.	8FFJ	.	.	.	.	.	8f#X'	<	.	.	[4A	p	[4e-X	p	.	.	16ee	.	.	.	.	.	.	.	.	.
.	.	.	.	.	.	.	.	.	.	.	.	.	.	.	.	.	.	.	.	.	.	.	.	.	.	.	.	.	.	.	.	.	.	.	.	.	16dd#JJ	.	.	.	.	.	.	.	.	.
.	.	8An	.	8b)	.	8d#L	.	8bb)	.	.	.	.	.	.	.	.	.	.	.	.	4r	.	.	.	.	.	8b'L	.	.	.	.	.	.	.	.	.	16ff#LL	.	.	.	.	.	.	.	.	.
.	.	.	.	.	.	.	.	.	.	.	.	.	.	.	.	.	.	.	.	.	.	.	.	.	.	.	.	.	.	.	.	.	.	.	.	.	16dd#	.	.	.	.	.	.	.	.	.
4FF_	.	[4F [4A	[	8r	.	8AJ	.	8r	.	.	.	.	.	.	.	.	.	.	.	.	.	.	.	.	.	.	8dd#X'^J	.	.	.	8A^] 8a	mf	8e-^] 8a	mf	.	.	16ee	.	.	.	.	.	.	.	.	.
.	.	.	.	.	.	.	.	.	.	.	.	.	.	.	.	.	.	.	.	.	.	.	.	.	.	.	.	.	.	.	.	.	.	.	.	.	16dd#JJ	.	.	.	.	.	.	.	.	.
.	.	.	.	(8bL	.	8d#L	.	(8bbL	.	.	.	.	.	.	.	.	.	.	.	.	4r	.	.	.	.	.	8ff#X'	.	.	.	16f#XLL	.	16f#XLL	.	.	.	16ff#LL	.	.	.	.	.	.	.	.	.
.	.	.	.	.	.	.	.	.	.	.	.	.	.	.	.	.	.	.	.	.	.	.	.	.	.	.	.	.	.	.	16g#XJ	.	16g#XJ	.	.	.	16dd#	.	.	.	.	.	.	.	.	.
16FF]	.	16F] 16A]	.	8a#XJ)	.	16d#'Jk	.	8aa#XJ)	.	.	.	.	.	.	.	.	.	.	.	.	.	.	.	.	.	.	8r	[	.	.	8aJ	.	8aJ	.	.	.	16ee	.	.	.	.	.	.	.	.	.
16r	.	16r	[	.	.	16r	.	.	.	.	.	.	.	.	.	.	.	.	.	.	.	.	.	.	.	.	.	.	.	.	.	.	.	.	.	.	16dd#JJ	.	.	.	.	.	.	.	.	.
=6	=6	=6	=6	=6	=6	=6	=6	=6	=6	=6	=6	=6	=6	=6	=6	=6	=6	=6	=6	=6	=6	=6	=6	=6	=6	=6	=6	=6	=6	=6	=6	=6	=6	=6	=6	=6	=6	=6	=6	=6	=6	=6	=6	=6	=6	=6
8FFF	.	8FFL	.	(4cc^	.	8d#XL	.	(4ccc^	.	2.r	2.r	.	2.r	2.r	.	2.r	2.r	.	2.r	.	8FFL	.	2.FF] 2.F]	.	2.A] 2.e-]	.	8r	.	2.r	.	8r	.	8r	.	2.r	.	16ff#XLL	.	2.r	.	2.r	.	2.r	.	2.r	.
.	.	.	.	.	.	.	.	.	.	.	.	.	.	.	.	.	.	.	.	.	.	.	.	.	.	.	.	.	.	.	.	.	.	.	.	.	16dd#X	.	.	.	.	.	.	.	.	.
[4FF^	.	8FJ	<	.	.	8AJ	.	.	.	.	.	.	.	.	.	.	.	.	.	.	8FFJ	.	.	.	.	.	8f#X'	<	.	.	[4A	.	[4e-X	.	.	.	16ee	.	.	.	.	.	.	.	.	.
.	.	.	.	.	.	.	.	.	.	.	.	.	.	.	.	.	.	.	.	.	.	.	.	.	.	.	.	.	.	.	.	.	.	.	.	.	16dd#JJ	.	.	.	.	.	.	.	.	.
.	.	8A	.	8b)	.	8d#L	.	8bb)	.	.	.	.	.	.	.	.	.	.	.	.	4r	.	.	.	.	.	8b'L	.	.	.	.	.	.	.	.	.	16ff#LL	.	.	.	.	.	.	.	.	.
.	.	.	.	.	.	.	.	.	.	.	.	.	.	.	.	.	.	.	.	.	.	.	.	.	.	.	.	.	.	.	.	.	.	.	.	.	16dd#	.	.	.	.	.	.	.	.	.
4FF_	.	[4F [4A	[	8r	.	8AJ	.	8r	.	.	.	.	.	.	.	.	.	.	.	.	.	.	.	.	.	.	8dd#X'^J	.	.	.	8A^] 8a	.	8e-^] 8a	.	.	.	16ee	.	.	.	.	.	.	.	.	.
.	.	.	.	.	.	.	.	.	.	.	.	.	.	.	.	.	.	.	.	.	.	.	.	.	.	.	.	.	.	.	.	.	.	.	.	.	16dd#JJ	.	.	.	.	.	.	.	.	.
.	.	.	.	(8bL	.	8d#L	.	(8bbL	.	.	.	.	.	.	.	.	.	.	.	.	4r	.	.	.	.	.	8ff#X'	.	.	.	16f#XLL	.	16f#XLL	.	.	.	16ff#LL	.	.	.	.	.	.	.	.	.
.	.	.	.	.	.	.	.	.	.	.	.	.	.	.	.	.	.	.	.	.	.	.	.	.	.	.	.	.	.	.	16g#XJ	.	16g#XJ	.	.	.	16dd#	.	.	.	.	.	.	.	.	.
16FF]	.	16F] 16A]	.	8a#XJ)	.	16d#'Jk	.	8aa#XJ)	.	.	.	.	.	.	.	.	.	.	.	.	.	.	.	.	.	.	8r	[	.	.	8aJ	.	8aJ	.	.	.	16ee	.	.	.	.	.	.	.	.	.
16r	.	16r	[	.	.	16r	.	.	.	.	.	.	.	.	.	.	.	.	.	.	.	.	.	.	.	.	.	.	.	.	.	.	.	.	.	.	16dd#JJ	.	.	.	.	.	.	.	.	.
=7	=7	=7	=7	=7	=7	=7	=7	=7	=7	=7	=7	=7	=7	=7	=7	=7	=7	=7	=7	=7	=7	=7	=7	=7	=7	=7	=7	=7	=7	=7	=7	=7	=7	=7	=7	=7	=7	=7	=7	=7	=7	=7	=7	=7	=7	=7
!LO:TX:t=cresc.	!	!LO:TX:t=cresc.	!	!LO:TX:t=cresc.	!	!LO:TX:t=cresc.	!	!LO:TX:t=cresc.	!	!	!	!	!	!	!	!	!	!	!	!	!	!	!	!	!	!	!	!	!	!	!	!	!	!	!	!	!	!	!LO:TX:t=cresc.	!	!LO:TX:t=cresc.	!	!	!	!LO:TX:t=cresc.	!
*	*	*	*	*	*	*	*	*	*	*	*	*	*	*	*	*	*	*	*	*	*	*	*	*	*	*	*	*	*	*	*^	*	*^	*	*	*	*	*	*	*	*	*	*	*	*	*
8FFF	.	8FFL	.	(4cc^	.	8d#XL	.	(4ccc^	.	2.r	2.r	.	2.r	2.r	.	2.r	2.r	.	2.r	.	8FFL	<	[2.FF [2.F	.	[2.A [2.e-X	<	2.r	.	8r	.	8r	8r	.	8r	8r	.	4r	.	8ff#X)	.	(4cc^	p	[2.dd#X [2.ff#X	p	2.r	.	(4ccc^	p
[4FF	.	8FJ	.	.	.	8AJ	.	.	.	.	.	.	.	.	.	.	.	.	.	.	8FFJ	.	.	.	.	.	.	.	8f#X'	<	16f#XLL	4A	<	16f#XLL	4en	<	.	.	8r	.	.	.	.	.	.	.	.	.
.	.	.	.	.	.	.	.	.	.	.	.	.	.	.	.	.	.	.	.	.	.	.	.	.	.	.	.	.	.	.	16g#XJJ	.	.	16g#XJJ	.	.	.	.	.	.	.	.	.	.	.	.	.	.
!	!	!	!	!	!	!	!	!	!	!	!	!	!	!	!	!	!	!	!	!	!	!	!	!	!	!	!	!	!	!	!	!	!	!	!	!	!LO:TX:t=cresc.	!	!	!	!	!	!	!	!	!	!	!
.	.	(16F#XLL	.	8b)	.	8d#L	.	8bb)	.	.	.	.	.	.	.	.	.	.	.	.	4r	.	.	.	.	.	.	.	8b'L	.	8aL	.	.	8aL	.	.	(16F#XLL	p	4r	.	8b)	.	.	.	.	.	8bb)	.
.	.	16G#XJ	.	.	.	.	.	.	.	.	.	.	.	.	.	.	.	.	.	.	.	.	.	.	.	.	.	.	.	.	.	.	.	.	.	.	16G#XJ	.	.	.	.	.	.	.	.	.	.	.
4.FF_	.	8AJ)	.	(4cc^	.	8AJ	.	(4ccc^	.	.	.	.	.	.	.	.	.	.	.	.	.	.	.	.	.	.	.	.	8dd#X'^J	.	16f#L	8r	.	16f#L	8r	.	8AJ)	.	.	.	(4cc^	.	.	.	.	.	(4ccc^	.
.	.	.	.	.	.	.	.	.	.	.	.	.	.	.	.	.	.	.	.	.	.	.	.	.	.	.	.	.	.	.	16g#JJ	.	.	16g#JJ	.	.	.	.	.	.	.	.	.	.	.	.	.	.
.	.	(16F#LL	.	.	.	8d#L	.	.	.	.	.	.	.	.	.	.	.	.	.	.	8FF^	.	.	.	.	.	.	.	8ff#X'L	.	8aL	4A	.	8aL	4e	.	(16F#LL	.	4r	.	.	.	.	.	.	.	.	.
.	.	16G#J	.	.	.	.	.	.	.	.	.	.	.	.	.	.	.	.	.	.	.	.	.	.	.	.	.	.	.	.	.	.	.	.	.	.	16G#J	.	.	.	.	.	.	.	.	.	.	.
.	.	8AJ)	.	8b)	.	8AJ	.	8bb)	.	.	.	.	.	.	.	.	.	.	.	.	8r	.	.	.	.	.	.	.	8f#'J	[	16f#L	.	.	16f#L	.	.	8AJ)	.	.	.	8b)	.	.	.	.	.	8bb)	.
.	.	.	.	.	.	.	.	.	.	.	.	.	.	.	.	.	.	.	.	.	.	.	.	.	.	.	.	.	.	.	16g#JJ	.	.	16g#JJ	.	.	.	.	.	.	.	.	.	.	.	.	.	.
=8	=8	=8	=8	=8	=8	=8	=8	=8	=8	=8	=8	=8	=8	=8	=8	=8	=8	=8	=8	=8	=8	=8	=8	=8	=8	=8	=8	=8	=8	=8	=8	=8	=8	=8	=8	=8	=8	=8	=8	=8	=8	=8	=8	=8	=8	=8	=8	=8
!	!	!	!	!	!	!	!	!	!	!	!	!	!	!	!	!	!	!	!	!	!	!	!	!	!	!	!	!	!	!	!	!	!	!	!	!	!	!	!	!	!	!	!	!	!LO:TX:t=cresc.	!	!	!
4.FF]	.	(16F#XLL	.	(4cc^	.	8d#XL	.	(4ccc^	.	2.r	2.r	.	2.r	2.r	.	2.r	2.r	.	2.r	.	8r	.	4.FF] 4.F]	.	4.A] 4.e-]	.	2.r	.	8b'L	<	8aL	8r	.	8aL	8r	.	(16F#XLL	.	2.r	.	(4cc^	.	2.dd#] 2.ff#]	.	(4ccc^	mf	(4ccc^	.
.	.	16G#XJ	.	.	.	.	.	.	.	.	.	.	.	.	.	.	.	.	.	.	.	.	.	.	.	.	.	.	.	.	.	.	.	.	.	.	16G#XJ	.	.	.	.	.	.	.	.	.	.	.
.	.	8AJ)	.	.	.	8AJ	.	.	.	.	.	.	.	.	.	.	.	.	.	.	8FF^	.	.	.	.	.	.	.	8dd#X'J	.	16f#XL	4A	.	16f#XL	4e	.	8AJ)	.	.	.	.	.	.	.	.	.	.	.
.	.	.	.	.	.	.	.	.	.	.	.	.	.	.	.	.	.	.	.	.	.	.	.	.	.	.	.	.	.	.	16g#XJJ	.	.	16g#XJJ	.	.	.	.	.	.	.	.	.	.	.	.	.	.
.	.	(16F#LL	.	8b)	.	8d#L	.	8bb)	.	.	.	.	.	.	.	.	.	.	.	.	8r	.	.	.	.	.	.	.	8ff#X'L	.	8aL	.	.	8aL	.	.	(16F#LL	.	.	.	8b)	.	.	.	8bb)	.	8bb)	.
.	.	16G#J	.	.	.	.	.	.	.	.	.	.	.	.	.	.	.	.	.	.	.	.	.	.	.	.	.	.	.	.	.	.	.	.	.	.	16G#J	.	.	.	.	.	.	.	.	.	.	.
4.BBB	.	8AJ)	.	(4cc^	.	8AJ	.	(4ccc^	.	.	.	.	.	.	.	.	.	.	.	.	8r	.	4.BBB 4.BB	.	4.A 4.e-X	[	.	.	8f#X'J	[	16f#L	8r	.	16f#L	8r	.	8AJ)	.	.	.	(4cc^	.	.	.	(4ccc^	.	(4ccc^	.
.	.	.	.	.	.	.	.	.	.	.	.	.	.	.	.	.	.	.	.	.	.	.	.	.	.	.	.	.	.	.	16g#JJ	.	.	16g#JJ	.	.	.	.	.	.	.	.	.	.	.	.	.	.
.	.	(16F#LL	.	.	.	8d#L	.	.	.	.	.	.	.	.	.	.	.	.	.	.	8FF^	[	.	.	.	.	.	.	16b'LL	.	8aL	4A	.	8aL	4e	.	(16F#LL	.	.	.	.	.	.	.	.	.	.	.
.	.	16G#J	.	.	.	.	.	.	.	.	.	.	.	.	.	.	.	.	.	.	.	.	.	.	.	.	.	.	16dd#X'J	.	.	.	.	.	.	.	16G#J	.	.	.	.	.	.	.	.	.	.	.
.	.	8AJ)	.	8b)	.	8AJ	.	8bb)	.	.	.	.	.	.	.	.	.	.	.	.	8r	.	.	.	.	.	.	.	8ff#X'J	[[	8f#J	.	.	8f#J	.	.	8AJ)	.	.	.	8b)	.	.	.	8bb)	.	8bb)	.
*	*	*	*	*	*	*	*	*	*	*	*	*	*	*	*	*	*	*	*	*	*	*	*	*	*	*	*	*	*	*	*v	*v	*	*	*	*	*	*	*	*	*	*	*	*	*	*	*	*
*	*	*	*	*	*	*	*	*	*	*	*	*	*	*	*	*	*	*	*	*	*	*	*	*	*	*	*	*	*	*	*	*	*v	*v	*	*	*	*	*	*	*	*	*	*	*	*	*
*	*	*	*	*	*	*	*	*	*	*	*	*	*	*	*	*	*	*	*	*	*	*	*	*	*	*	*	*	*	*	*	*	*	*	*clefC4	*	*	*	*	*	*	*	*	*	*	*
=9	=9	=9	=9	=9	=9	=9	=9	=9	=9	=9	=9	=9	=9	=9	=9	=9	=9	=9	=9	=9	=9	=9	=9	=9	=9	=9	=9	=9	=9	=9	=9	=9	=9	=9	=9	=9	=9	=9	=9	=9	=9	=9	=9	=9	=9	=9
!!pagebreak:original
!LO:TX:t=cresc.	!	!	!	!	!	!	!	!	!	!	!	!	!	!	!	!	!	!	!	!	!	!	!	!	!	!	!	!	!	!	!	!	!	!	!	!	!	!	!	!	!	!	!	!	!	!
[4.GGG [4.GG	f	8r	.	8r	.	8r	.	8r	.	4r	4r	.	4r	4r	.	16x	2.r	.	4r	.	2.r	.	[4.GGG^ [4.GG	f	2.r	.	8r	.	8r	[	8r	[	8r	[	8r	.	8r	.	2.r	.	8r	.	2.r	.	8r	.
.	.	.	.	.	.	.	.	.	.	.	.	.	.	.	.	16r	.	.	.	.	.	.	.	.	.	.	.	.	.	.	.	.	.	.	.	.	.	.	.	.	.	.	.	.	.	.
.	.	8B	f	8b	f	8bb	f	8bb	f	.	.	.	.	.	.	8r	.	.	.	.	.	.	.	.	.	.	(4G^ 4d	<	(4g^	<	[4G^ [4g	<	[4d^ [4fn	<	(4d 4fn	f	(4G 4g	<	.	.	[4ddn^ [4ffn	<	.	.	(4gg	<
.	.	8cL	.	8ccL	.	8cccL	.	8cccL	.	8r	4r	.	4r	8r	.	4r	.	.	8r	.	.	.	.	.	.	.	.	.	.	.	.	.	.	.	.	.	.	.	.	.	.	.	.	.	.	.
!	!	!LO:TX:t=cresc.	!	!LO:TX:t=cresc.	!	!LO:TX:t=cresc.	!	!LO:TX:t=cresc.	!	!	!	!	!	!	!	!	!	!	!LO:TX:t=cresc.	!	!	!	!	!	!	!	!	!	!	!	!	!	!	!	!	!	!	!	!	!	!	!	!	!	!	!
4GGG_ 4GG_	.	8c^J	.	8cc^J	.	8ccc^J	.	8ccc^J	.	(20GGLL	.	<	.	20a^LL	ff	.	.	.	4.x	p	.	.	4GGG] 4GG_	.	.	.	4A^ 4f	.	4a^	.	4G_ 4g_	.	4d_ 4f_	.	[8G) [8d	.	4A 4a	.	.	.	4dd_ 4ff_	.	.	.	4aa	.
.	.	.	.	.	.	.	.	.	.	20AA	.	.	.	20g	.	.	.	.	.	.	.	.	.	.	.	.	.	.	.	.	.	.	.	.	.	.	.	.	.	.	.	.	.	.	.	.
.	.	.	.	.	.	.	.	.	.	20BB	.	.	.	20f	.	.	.	.	.	.	.	.	.	.	.	.	.	.	.	.	.	.	.	.	.	.	.	.	.	.	.	.	.	.	.	.
.	.	.	.	.	.	.	.	.	.	.	8qqg/	.	.	.	.	.	.	.	.	.	.	.	.	.	.	.	.	.	.	.	.	.	.	.	.	.	.	.	.	.	.	.	.	.	.	.
.	.	8AL	.	8aL	.	8aaL	.	8aaL	.	.	8ff	.	8GG	.	.	4r	.	.	.	.	.	.	.	.	.	.	.	.	.	.	.	.	.	.	16G] 16d]	.	.	.	.	.	.	.	.	.	.	.
.	.	.	.	.	.	.	.	.	.	20C	.	.	.	20d	.	.	.	.	.	.	.	.	.	.	.	.	.	.	.	.	.	.	.	.	.	.	.	.	.	.	.	.	.	.	.	.
.	.	.	.	.	.	.	.	.	.	.	.	.	.	.	.	.	.	.	.	.	.	.	.	.	.	.	.	.	.	.	.	.	.	.	16r	.	.	.	.	.	.	.	.	.	.	.
.	.	.	.	.	.	.	.	.	.	20DJJ)	.	.	.	20GJJ	.	.	.	.	.	.	.	.	.	.	.	.	.	.	.	.	.	.	.	.	.	.	.	.	.	.	.	.	.	.	.	.
16GGG] 16GG]	.	(16BL	.	(16bL	.	(16bbL	.	(16bbL	.	8r	8r	[	8r	8r	.	.	.	.	.	.	.	.	8GG]	.	.	.	8d^) 8g	[[	8ddn^)	[[	16G] 16g]	.	16d] 16f]	.	8r	.	8d) 8dd	[[	.	.	16dd] 16ff]	.	.	.	8ddd)	[[
16r	.	16GnJJ)	.	16gJJ)	.	16ggJJ)	.	16ggJJ)	.	.	.	.	.	.	.	.	.	.	.	.	.	.	.	.	.	.	.	.	.	.	16r	[	16r	[	.	.	.	.	.	.	16r	[	.	.	.	.
*	*	*	*	*	*	*	*	*	*	*	*	*	*	*	*	*	*	*	*	*	*	*	*	*	*	*	*	*	*	*	*	*	*	*	*clefF4	*	*	*	*	*	*	*	*	*	*	*
=10	=10	=10	=10	=10	=10	=10	=10	=10	=10	=10	=10	=10	=10	=10	=10	=10	=10	=10	=10	=10	=10	=10	=10	=10	=10	=10	=10	=10	=10	=10	=10	=10	=10	=10	=10	=10	=10	=10	=10	=10	=10	=10	=10	=10	=10	=10
8CCL	ff	8r	.	8CL 8A 8e 8cc	.	8e'L 8cc 8aa	ff	8e'L 8cc 8aa	ff	8C' 8c	8e' 8g 8cc 8ee	ff	8CC 8C	8A 8e 8g 8cc	ff	2.r	2.x	ff	8x	ff	8CL	ff	8CCL 8C	f	8AL 8e	f	8cL 8g	[	8ccL	[	8CL 8c	ff	8AL 8e	ff	8CCL 8C	ff	8gL 8cc	[	8ccL	ff	8ee'L 8aa	ff	8aaa'L	.	8aa'L 8ccc	[
8GGGJ	.	8GG	ff	8GJ 8e	.	(24aaL	.	(24aaL	.	8r	8r	.	8r	8r	.	.	.	.	8r	.	8GGJ	.	8GGJ	.	8GJ 8e	.	8cJ 8cc	.	8aJ	.	8CJ 8c	.	8GJ 8e	.	8GGJ	.	8aJ 8cc	.	8ccJ	.	([24eeL 24aa	.	(24aaaL	.	(24aaL [24ccc	.
.	.	.	.	.	.	24bb	.	24bb	.	.	.	.	.	.	.	.	.	.	.	.	.	.	.	.	.	.	.	.	.	.	.	.	.	.	.	.	.	.	.	.	[24ee 24bb	.	24bbb	.	24bb [24ccc	.
.	.	.	.	.	.	24aaJJ)	.	24aaJJ)	.	.	.	.	.	.	.	.	.	.	.	.	.	.	.	.	.	.	.	.	.	.	.	.	.	.	.	.	.	.	.	.	24eeJJ) 24aa	.	24aaaJJ)	.	24aaJJ) 24ccc	.
8CCL	.	8CL	.	8eL 8cc	.	[8gg	.	[8gg	.	4r	4r	.	4r	4r	.	.	.	.	4r	.	8CL	.	8CL	.	8AL 8e	.	8cL 8g	.	8ccL	.	8CL 8c	.	8AL 8e	.	8CCL 8C	.	8gL 8cc	.	8ccL	.	[8eeL [8gg	.	[8ggg	.	[8ggL 8ccc	.
8GGGJ	.	8GGJ	.	8GJ 8e	.	4.gg]	.	4.gg]	.	.	.	.	.	.	.	.	.	.	.	.	8GGJ	.	8GGJ	.	8GJ 8e	.	8cJ 8cc	.	8aJ	.	8CJ 8c	.	8GJ 8e	.	8GGJ	.	8aJ 8ee	.	8ccJ	.	8eeJ] 8gg_	.	4.ggg]	.	8ggJ_ 8ccc	.
8CCL	.	8CL	.	8eL 8cc	.	.	.	.	.	4r	4r	.	4r	4r	.	.	.	.	4r	.	8CL	.	8CL	.	8AL 8e	.	8cL 8g	.	8ccL	.	8r	.	8r	.	8CCL 8C	.	8gL 8ee	.	8ccL	.	8eeL 8gg_	.	.	.	8ggL_ 8ccc	.
8GGGJ	.	8GGJ	.	8GJ 8e	.	.	.	.	.	.	.	.	.	.	.	.	.	.	.	.	8GGJ	.	8GGJ	.	8GJ 8e	.	8cJ 8cc	.	8aJ	.	8C 8c	.	8G 8e	.	8GGJ	.	8aJ 8ee	.	8ccJ	.	8eeJ 8gg]	.	.	.	8ggJ] 8ccc	.
=11	=11	=11	=11	=11	=11	=11	=11	=11	=11	=11	=11	=11	=11	=11	=11	=11	=11	=11	=11	=11	=11	=11	=11	=11	=11	=11	=11	=11	=11	=11	=11	=11	=11	=11	=11	=11	=11	=11	=11	=11	=11	=11	=11	=11	=11	=11
8CCL	.	8CL	.	8eL 8cc	.	8r	.	8r	.	2.r	2.r	.	2.r	2.r	.	2.r	2.r	.	2.r	.	8CL	.	8CL	.	8AL 8e	.	8cL 8g	.	8ccL	.	8CL 8c	.	8AL 8e	.	8CCL 8C	.	8gL 8cc	.	8ccL	.	8eeL	.	8r	.	8cccL	.
8GGGJ	.	8GGJ	.	8GJ 8e	.	8gg^	.	8gg^	.	.	.	.	.	.	.	.	.	.	.	.	8GGJ	.	8GGJ	.	8GJ 8e	.	8cJ 8cc	.	8aJ	.	8CJ 8c	.	8GJ 8e	.	8GGJ	.	8aJ 8cc	.	8ccJ	.	(8eeJ 8gg	.	(8ggg	.	(8ggJ 8ccc	.
8CCL	.	8CL	.	8eL 8cc	.	8aa^L	.	8aa^L	.	.	.	.	.	.	.	.	.	.	.	.	8CL	.	8CL	.	8AL 8e	.	8cL 8g	.	8ccL	.	8CL 8c	.	8AL 8e	.	8CCL 8C	.	8gL 8cc	.	8ccL	.	8eeL) 8aa	.	8aaaL)	.	8aaL) 8ccc	.
!	!	!	!	!	!	!LO:TX:t=cresc.	!	!LO:TX:t=cresc.	!	!	!	!	!	!	!	!	!	!	!	!	!	!	!	!	!	!	!	!	!	!	!	!	!	!	!	!	!	!	!	!	!	!	!	!	!	!
8GGGJ	.	8GGJ	.	8GJ 8e	.	8aa^J	.	8aa^J	.	.	.	.	.	.	.	.	.	.	.	.	8GGJ	.	8GGJ	.	8GJ 8e	.	8cJ 8a	.	8eeJ	.	8CJ 8c	.	8GJ 8e	.	8GGJ	.	8aJ 8ee	.	8eeJ	.	(8ccJ 8aa	.	(8aaaJ	.	(8aaJ 8eee	.
8CCL	.	8CL	.	8eL 8cc	.	8gg^L	.	8gg^L	.	.	.	.	.	.	.	.	.	.	.	.	8CL	.	8CL	.	8AL 8e	.	8cL 8g	.	8ccL	.	8r	.	8r	.	8CCL 8C	.	8gL 8ee	.	8ccL	.	8eeL) 8gg	.	8gggL)	.	8ggL) 8ccc	.
8GGGJ	.	8GGJ	.	8GJ 8e	.	(16aaL	.	(16aaL	.	.	.	.	.	.	.	.	.	.	.	.	8GGJ	.	8GGJ	.	8GJ 8e	.	8cJ 8a	.	8eeJ	.	8C 8c	.	8G 8e	.	8GGJ	.	8aJ 8ee	.	8eeJ	.	([16ccL 16aa	.	(16aaaL	.	(16aaL [16eee	.
.	.	.	.	.	.	16bbJJ)	.	16bbJJ)	.	.	.	.	.	.	.	.	.	.	.	.	.	.	.	.	.	.	.	.	.	.	.	.	.	.	.	.	.	.	.	.	16ccJJ]) 16bb	.	16bbbJJ)	.	16bbJJ) 16eee]	.
=12	=12	=12	=12	=12	=12	=12	=12	=12	=12	=12	=12	=12	=12	=12	=12	=12	=12	=12	=12	=12	=12	=12	=12	=12	=12	=12	=12	=12	=12	=12	=12	=12	=12	=12	=12	=12	=12	=12	=12	=12	=12	=12	=12	=12	=12	=12
.	.	.	.	.	.	.	.	.	.	.	.	.	.	.	.	.	.	.	(16qx/LL	.	.	.	.	.	.	.	.	.	.	.	.	.	.	.	.	.	.	.	.	.	.	.	.	.	.	.
.	.	.	.	.	.	.	.	.	.	.	.	.	.	.	.	.	.	.	16qx/JJ	.	.	.	.	.	.	.	.	.	.	.	.	.	.	.	.	.	.	.	.	.	.	.	.	.	.	.
8r	.	8r	.	8A'L 8f 8cc	sffz	8ccc'L	sffz	8ff'L 8ccc	sffz	2.r	2.r	.	2.r	2.r	.	2.r	2.r	.	8x^)	.	8DL	.	8DL	.	8AL 8c	.	8f^L 8g	.	8cc^L	.	8AL	.	8r	.	8DD^L 8D	.	8cc'L	sffz	8cc'L	sffz	8ff'L 8ccc	sffz	8cccc'L	sffz	8ccc'L	sffz
!LO:TX:t=pizz.	!	!	!	!	!	!	!	!	!	!	!	!	!	!	!	!	!	!	!	!	!	!	!	!	!	!	!	!	!	!	!	!	!	!	!	!	!	!	!	!	!	!	!	!	!	!
8GGG	.	16cLL	.	(24ccL	.	8GJ	.	(24cccL	.	.	.	.	.	.	.	.	.	.	8r	.	8GGJ	.	8GGJ	.	8GJ 8c	.	8gJ 8a	.	8ccJ	.	16GL 16e	.	16eLL	.	8GGJ	.	(24ccL 24ee	.	(24ccL	.	(24cccL	.	(24ccccL	.	(24cccL	.
.	.	.	.	24dd	.	.	.	24ddd	.	.	.	.	.	.	.	.	.	.	.	.	.	.	.	.	.	.	.	.	.	.	.	.	.	.	.	.	24dd	.	24dd	.	24ddd	.	24dddd	.	24ddd	.
.	.	16cJJ	.	.	.	.	.	.	.	.	.	.	.	.	.	.	.	.	.	.	.	.	.	.	.	.	.	.	.	.	16eJJ	.	16eJJ	.	.	.	.	.	.	.	.	.	.	.	.	.
.	.	.	.	24ccJJ)	.	.	.	24cccJJ)	.	.	.	.	.	.	.	.	.	.	.	.	.	.	.	.	.	.	.	.	.	.	.	.	.	.	.	.	24ccJJ) 24ee	.	24ccJJ)	.	24cccJJ)	.	24ccccJJ)	.	24cccJJ)	.
8DDL	.	8cL	.	[8b	.	8AL	.	[8bb	.	.	.	.	.	.	.	.	.	.	4r	.	8DL	.	8DL	.	8AL [8B	.	8fL 8g	.	8bL	.	8AL 8e	.	8eL	.	8DDL 8D	.	[8bL [8ee	.	[8b	.	[8bb	.	[8bbb	.	[8bb	.
8GGGJ	.	8cJ	.	4.b]	.	8GJ	.	4.bb]	.	.	.	.	.	.	.	.	.	.	.	.	8GGJ	.	8GGJ	.	8GJ 8B_	.	8gJ 8a	.	8bJ	.	8GJ 8e	.	8eJ	.	8GGJ	.	(8bJ_ 8ee]	.	4.b]	.	4.bb]	.	4.bbb]	.	4.bb]	.
8DDL	.	8.dL	.	.	.	8AL	.	.	.	.	.	.	.	.	.	.	.	.	4r	.	8DL	.	8DL	.	8AL 8B_	.	8fL 8g	.	8bL	.	[8fL	.	8.fL	.	8DDL 8D	.	8bL_ 8ff	.	.	.	.	.	.	.	.	.
8GGGJ	.	.	.	.	.	8GJ	.	.	.	.	.	.	.	.	.	.	.	.	.	.	8GGJ	.	8GGJ	.	8GJ 8B_	.	8gJ 8a	.	8bJ	.	16GL 16f]	.	.	.	8GGJ	.	8bJ] 8ee	.	.	.	.	.	.	.	.	.
.	.	16cJk	.	.	.	.	.	.	.	.	.	.	.	.	.	.	.	.	.	.	.	.	.	.	.	.	.	.	.	.	16eJJ	.	16eJk	.	.	.	.	.	.	.	.	.	.	.	.	.
=13	=13	=13	=13	=13	=13	=13	=13	=13	=13	=13	=13	=13	=13	=13	=13	=13	=13	=13	=13	=13	=13	=13	=13	=13	=13	=13	=13	=13	=13	=13	=13	=13	=13	=13	=13	=13	=13	=13	=13	=13	=13	=13	=13	=13	=13	=13
8DDL	.	4.B	.	8r	.	4.d	.	8r	.	2.r	2.r	.	2.r	2.r	.	2.r	2.r	.	2.r	.	8DL	.	8DL	.	8AL 8B]	.	8fL 8g	.	8bL	.	8AL [8d	.	4.d	.	8DDL 8D	.	8ddL)	.	8r	.	8r	.	8r	.	8r	.
8GGGJ	.	.	.	8b	.	.	.	8bb	.	.	.	.	.	.	.	.	.	.	.	.	8GGJ	.	8GGJ	.	8GJ 8B	.	8gJ 8a	.	8bJ	.	8GJ 8d_	.	.	.	8GGJ	.	(8bJ 8bb	.	(8b	.	(8b 8bb	.	(8bb	.	(8bb	.
8DD	.	.	.	8ccL	.	.	.	8cccL	.	.	.	.	.	.	.	.	.	.	.	.	8DL	.	8DL	.	8AL 8c	.	8fL 8g	.	8ccL	.	8AL 8d]	.	.	.	8DDL 8D	.	8ccL) 8ccc	.	8ccL)	.	8ccL) 8ccc	.	8cccL)	.	8cccL)	.
!	!	!	!	!	!	!	!	!	!	!	!	!	!	!	!	!	!	!	!	!	!	!	!	!	!	!	!LO:TX:t=cresc.	!	!LO:TX:t=cresc.	!	!	!	!	!	!	!	!	!	!	!	!LO:TX:t=cresc.	!	!LO:TX:t=cresc.	!	!LO:TX:t=cresc.	!
8r	.	8r	.	8cc^J	.	8r	.	8ccc^J	.	.	.	.	.	.	.	.	.	.	.	.	8GGJ	.	8GGJ	.	8GJ 8c	.	8gJ 8a	.	8ccJ	.	8GJ	.	8r	.	8GGJ	.	(8ccJ 8ccc	.	(8ccJ	.	(8ccJ 8ccc	.	(8cccJ	.	(8cccJ	.
!	!	!	!	!	!	!	!	!	!	!	!	!	!	!	!	!	!	!	!	!	!	!	!	!	!	!	!	!	!	!	!	!	!	!	!	!	!LO:TX:t=cresc.	!	!	!	!	!	!	!	!	!
16GGGLL	.	16GGLL	.	8aL	.	4r	.	8aaL	.	.	.	.	.	.	.	.	.	.	.	.	4r	.	4r	.	8dL	.	8fL 8a	.	8ddL	.	16G^LL	.	16E^LL 16e	.	16GG^LL 16G	ff	8ddL) 8aa	.	8aL	.	8aL) 8aa	.	8aaL)	.	8aaL)	.
16GGG	.	16GG	.	.	.	.	.	.	.	.	.	.	.	.	.	.	.	.	.	.	.	.	.	.	.	.	.	.	.	.	16G^	.	16E^ 16e	.	16GG^ 16G	.	.	.	.	.	.	.	.	.	.	.
16GGG	.	16GG	.	8bJ	.	.	.	(16bbL	.	.	.	.	.	.	.	.	.	.	.	.	.	.	.	.	8dJ	.	8dJ 8b	.	8ddJ	.	16G^	.	16E^ 16e	.	16GG^ 16G	.	[16ddL 16ddd	.	8bnJ)	.	(16bL 16bb	.	(16bbL	.	(16bbL	.
16GGGJJ	.	16GGJJ	.	.	.	.	.	16ggJJ)	.	.	.	.	.	.	.	.	.	.	.	.	.	.	.	.	.	.	.	.	.	.	16G^JJ	.	16E^JJ 16e	.	16GG^JJ 16G	.	16ddJJ] 16bb-X	.	.	.	16ddJJ) 16gg	.	16ggJJ)	.	16ggJJ)	.
=14	=14	=14	=14	=14	=14	=14	=14	=14	=14	=14	=14	=14	=14	=14	=14	=14	=14	=14	=14	=14	=14	=14	=14	=14	=14	=14	=14	=14	=14	=14	=14	=14	=14	=14	=14	=14	=14	=14	=14	=14	=14	=14	=14	=14	=14	=14
.	.	.	.	.	.	.	.	.	.	.	.	.	.	.	.	.	.	.	(16qx/LL	.	.	.	.	.	.	.	.	.	.	.	.	.	.	.	.	.	.	.	.	.	.	.	.	.	.	.
.	.	.	.	.	.	.	.	.	.	.	.	.	.	.	.	.	.	.	16qx/JJ	.	.	.	.	.	.	.	.	.	.	.	.	.	.	.	.	.	.	.	.	.	.	.	.	.	.	.
*	*	*	*	*	*	*	*	*	*	*	*	*	*	*	*	*	*	*	*	*	*	*	*	*	*	*	*	*	*	*	*	*	*	*	*	*	*^	*	*	*	*^	*	*	*	*	*
8CCL	.	8CL	.	8A' 8f 8cc	sffz	8cL	.	8aa'L	sffz	2.r	2.r	.	2.r	2.r	.	2.r	2.r	.	8x^)	.	2.r	.	4r	.	8e	.	8eL 8a	.	8.cc^L	.	8c^L 8a	.	8A^L 8a	.	8C^L 8c	.	8aa'L	8.ccL	sffz	(8e^L	.	8aa'L	8.ccL	sffz	8aa'^L	sffz	8aa'^L	sffz
8CCJ	.	8CJ	.	16r	.	8cJ	.	(24aaL	.	.	.	.	.	.	.	.	.	.	8r	.	.	.	.	.	8r	.	8eJ 8g	.	.	.	8c^J 8g	.	8A^J 8a	.	8C^J 8c	.	(24aaL	.	.	8gJ	.	(24aaL	.	.	(24aaL	.	(24aaL	.
.	.	.	.	.	.	.	.	24bb	.	.	.	.	.	.	.	.	.	.	.	.	.	.	.	.	.	.	.	.	.	.	.	.	.	.	.	.	24bb	.	.	.	.	24bb	.	.	24bb	.	24bb	.
.	.	.	.	16dd	.	.	.	.	.	.	.	.	.	.	.	.	.	.	.	.	.	.	.	.	.	.	.	.	16dd^Jk	.	.	.	.	.	.	.	.	8dd	.	.	.	.	8dd	.	.	.	.	.
.	.	.	.	.	.	.	.	24aaJJ)	.	.	.	.	.	.	.	.	.	.	.	.	.	.	.	.	.	.	.	.	.	.	.	.	.	.	.	.	24aaJJ)	.	.	.	.	24aaJJ)	.	.	24aaJJ)	.	24aaJJ)	.
8CCL	.	8CL	.	[8ee^	.	8cL	.	[8gg	.	.	.	.	.	.	.	.	.	.	4r	.	.	.	8r	.	4r	.	8eL 8a	.	[8ee^	.	8c^L 8a	.	8A^L 8a	.	8C^L 8c	.	[8gg	.	.	8a	.	[8gg	.	.	[8ggL	.	[8ggL	.
.	.	.	.	.	.	.	.	.	.	.	.	.	.	.	.	.	.	.	.	.	.	.	.	.	.	.	.	.	.	.	.	.	.	.	.	.	.	[8eeJ	.	.	.	.	[8eeJ	.	.	.	.	.
8CCJ	.	8CJ	.	4.ee]	.	8cJ	.	4.ggT]	.	.	.	.	.	.	.	.	.	.	.	.	.	.	8r	.	.	.	8eJ 8g	.	4.ee_	.	8e^J 8g	.	8AJ 8a	.	8CJ 8c	.	4.gg]	.	.	4.g)	.	4.gg]	.	.	8ggJ]	.	8ggJ]	.
.	.	.	.	.	.	.	.	.	.	.	.	.	.	.	.	.	.	.	.	.	.	.	.	.	.	.	.	.	.	.	.	.	.	.	.	.	.	4ee]	.	.	.	.	4ee]	.	.	.	.	.
8BBBL	.	8BBL	.	.	.	8BL	.	.	.	.	.	.	.	.	.	.	.	.	4r	.	.	.	8BBL	.	8BL	.	8eL 8g	.	.	.	8eL 8g	.	4r	.	4r	.	.	.	.	.	.	.	.	.	4r	.	4r	.
8CCJ	.	8CJ	.	.	.	8cJ	.	.	.	.	.	.	.	.	.	.	.	.	.	.	.	.	8CJ	.	8cJ	.	8eJ 8g	.	.	.	8eJ 8g	.	.	.	.	.	.	.	.	.	.	.	.	.	.	.	.	.
.	.	.	.	.	.	.	.	.	.	.	.	.	.	.	.	.	.	.	.	.	.	.	.	.	.	.	.	.	.	.	.	.	.	.	.	.	.	16r	.	.	.	.	16r	.	.	.	.	.
*	*	*	*	*	*	*	*	*	*	*	*	*	*	*	*	*	*	*	*	*	*	*	*	*	*	*	*	*	*	*	*	*	*	*	*	*	*v	*v	*	*	*	*v	*v	*	*	*	*	*
==	==	==	==	==	==	==	==	==	==	==	==	==	==	==	==	==	==	==	==	==	==	==	==	==	==	==	==	==	==	==	==	==	==	==	==	==	==	==	==	==	==	==	==	==	==	==
*-	*-	*-	*-	*-	*-	*-	*-	*-	*-	*-	*-	*-	*-	*-	*-	*-	*-	*-	*-	*-	*-	*-	*-	*-	*-	*-	*-	*-	*-	*-	*-	*-	*-	*-	*-	*-	*-	*-	*-	*-	*-	*-	*-	*-	*-	*-
!!!CDT: 1876/11/23-1946/11/14
!!!CBL: Cádiz, Spain
!!!CDL: Alta Gracia, Argentina
!!!CNT: Spanish
!!!AGN: Stage; Ballet
!!!MCN: Ansermet, Ernest
!!!MDT: 1919/07/22
!!!MGN: Ballets Russes
!!!MLC: London, United Kingdom
!!!MPD: 1919
!!!MPN: Rosovsku, Zoia
!!!ODT: 1919
!!!PDT: 1921
!!!excerpt-start-measure: 1
!!!excerpt-end-measure: 14
!!!excerpt-start-time: 0:00
!!!excerpt-end-time: 0:25
!!!EEV: 2020/01/17
!!!system-decoration: [(s1,s2,s3,s4,s5,s6)][(s7,s8,s9,s10,s11,s12)][(s13)][(s14,s15,s16)]{(s17,s18)}{(s19,s20)}[(s21,s22,s23,s24,s25)]
!!!ONB: Converted from MusicXML on 2020/01/17
